svg/building/statue_of_liberty_fill.svg

<?xml version="1.0" encoding="UTF-8"?>
<svg width="24px" height="24px" viewBox="0 0 24 24" version="1.1" xmlns="http://www.w3.org/2000/svg" xmlns:xlink="http://www.w3.org/1999/xlink">
    <title>statue_of_liberty_fill</title>
    <g id="页面-1" stroke="none" stroke-width="1" fill="none" fill-rule="evenodd">
        <g id="Building" transform="translate(-240.000000, -240.000000)">
            <g id="statue_of_liberty_fill" transform="translate(240.000000, 240.000000)">
                 <path d="M24,0 L24,24 L0,24 L0,0 L24,0 Z M12.5934901,23.257841 L12.5819402,23.2595131 L12.5108777,23.2950439 L12.4918791,23.2987469 L12.4918791,23.2987469 L12.4767152,23.2950439 L12.4056548,23.2595131 C12.3958229,23.2563662 12.3870493,23.2590235 12.3821421,23.2649074 L12.3780323,23.275831 L12.360941,23.7031097 L12.3658947,23.7234994 L12.3769048,23.7357139 L12.4804777,23.8096931 L12.4953491,23.8136134 L12.4953491,23.8136134 L12.5071152,23.8096931 L12.6106902,23.7357139 L12.6232938,23.7196733 L12.6232938,23.7196733 L12.6266527,23.7031097 L12.609561,23.275831 C12.6075724,23.2657013 12.6010112,23.2592993 12.5934901,23.257841 L12.5934901,23.257841 Z M12.8583906,23.1452862 L12.8445485,23.1473072 L12.6598443,23.2396597 L12.6498822,23.2499052 L12.6498822,23.2499052 L12.6471943,23.2611114 L12.6650943,23.6906389 L12.6699349,23.7034178 L12.6699349,23.7034178 L12.678386,23.7104931 L12.8793402,23.8032389 C12.8914285,23.8068999 12.9022333,23.8029875 12.9078286,23.7952264 L12.9118235,23.7811639 L12.8776777,23.1665331 C12.8752882,23.1545897 12.8674102,23.1470016 12.8583906,23.1452862 L12.8583906,23.1452862 Z M12.1430473,23.1473072 C12.1332178,23.1423925 12.1221763,23.1452606 12.1156365,23.1525954 L12.1099173,23.1665331 L12.0757714,23.7811639 C12.0751323,23.7926639 12.0828099,23.8018602 12.0926481,23.8045676 L12.108256,23.8032389 L12.3092106,23.7104931 L12.3186497,23.7024347 L12.3186497,23.7024347 L12.3225043,23.6906389 L12.340401,23.2611114 L12.337245,23.2485176 L12.337245,23.2485176 L12.3277531,23.2396597 L12.1430473,23.1473072 Z" id="MingCute" fill-rule="nonzero"></path>
                <path d="M9,2.5 C9,3.05228 8.55228,3.5 8,3.5 C7.44772,3.5 7,3.05228 7,2.5 C7,1.94772 7.84375,0.5 8,0.5 C8.15625,0.5 9,1.94772 9,2.5 Z M13,4.5 C13,4.51744 12.9991,4.53466 12.9974,4.55164 C13.2742,4.61062 13.5277,4.71801 13.7543,4.86282 C13.7627,4.79986 13.7833,4.73746 13.817,4.67904 C13.9551,4.4399 14.8985,3.57141 15,3.63 C15.1015,3.6886 14.8211,4.9399 14.683,5.17904 C14.6112,5.30349 14.4939,5.38537 14.3643,5.41582 C14.7716,5.92563 15,6.5893 15,7.25 C15,7.64706 14.9234,8.02947 14.7818,8.37712 C14.6975,8.58409 14.5518,8.74755 14.3743,8.85504 L14.3922,8.85862 C15.3271,9.04559 16,9.86642 16,10.8198 L16,12.5858 L16.2929,12.2929 C16.6834,11.9024 17.3166,11.9024 17.7071,12.2929 C18.0976,12.6834 18.0976,13.3166 17.7071,13.7071 L16,15.4142 L16,18 C16.5523,18 17,18.4477 17,19 L17,21 C17.5523,21 18,21.4477 18,22 C18,22.5523 17.5523,23 17,23 L16,23 L9,23 L8,23 C7.44772,23 7,22.5523 7,22 C7,21.4477 7.44772,21 8,21 L8,19 C8,18.4477 8.44772,18 9,18 L9,14.5 L9,14.4142 L7.29289,12.7071 C7.10536,12.5196 7,12.2652 7,12 L7,5.86622 C6.7011,5.69331 6.5,5.37014 6.5,5 C6.5,4.44772 6.94772,4 7.5,4 L7.97715,4 C7.99187,3.99967 8.00658,3.99968 8.02126,4 L8.5,4 C9.05228,4 9.5,4.44772 9.5,5 C9.5,5.18145 9.45167,5.35162 9.36718,5.49833 L10.031,6.82603 C10.1062,6.3117 10.3158,5.81629 10.6357,5.41582 C10.5061,5.38537 10.3888,5.30349 10.317,5.17904 C10.1789,4.9399 9.89848,3.6886 9.99997,3.63 C10.1015,3.57141 11.0449,4.4399 11.183,4.67904 C11.2167,4.73746 11.2373,4.79986 11.2457,4.86282 C11.4723,4.71801 11.7258,4.61062 12.0026,4.55164 C12.0009,4.53466 12,4.51744 12,4.5 C12,4.22386 12.3828,3 12.5,3 C12.6172,3 13,4.22386 13,4.5 Z" id="形状" fill="#09244B"></path>
            </g>
        </g>
    </g>
</svg>

<svg xmlns="http://www.w3.org/2000/svg" width="24" height="24"><g fill="none" fill-rule="evenodd"><path d="M24 0v24H0V0h24ZM12.593 23.258l-.011.002-.071.035-.02.004-.014-.004-.071-.035c-.01-.004-.019-.001-.024.005l-.004.01-.017.428.005.02.01.013.104.074.015.004.012-.004.104-.074.012-.016.004-.017-.017-.427c-.002-.01-.009-.017-.017-.018Zm.265-.113-.013.002-.185.093-.01.01-.003.011.018.43.005.012.008.007.201.093c.012.004.023 0 .029-.008l.004-.014-.034-.614c-.003-.012-.01-.02-.02-.022Zm-.715.002a.023.023 0 0 0-.027.006l-.006.014-.034.614c0 .012.007.02.017.024l.015-.002.201-.093.01-.008.004-.011.017-.43-.003-.012-.01-.01-.184-.092Z"/><path fill="#09244B" d="M9 2.5a1 1 0 0 1-2 0c0-.552.844-2 1-2 .156 0 1 1.448 1 2Zm4 2c0 .017 0 .035-.003.052.277.059.53.166.757.31a.5.5 0 0 1 .063-.183c.138-.24 1.082-1.108 1.183-1.049.101.059-.179 1.31-.317 1.549a.498.498 0 0 1-.319.237 2.974 2.974 0 0 1 .418 2.961.996.996 0 0 1-.408.478l.018.004A2 2 0 0 1 16 10.819v1.767l.293-.293a1 1 0 0 1 1.414 1.414L16 15.414V18a1 1 0 0 1 1 1v2a1 1 0 1 1 0 2H8a1 1 0 1 1 0-2v-2a1 1 0 0 1 1-1v-3.586l-1.707-1.707A1 1 0 0 1 7 12V5.866A1 1 0 0 1 7.5 4h1a1 1 0 0 1 .867 1.498l.664 1.328a2.96 2.96 0 0 1 .605-1.41.498.498 0 0 1-.319-.237c-.138-.24-.419-1.49-.317-1.549.101-.059 1.045.81 1.183 1.049a.5.5 0 0 1 .063.184c.226-.145.48-.252.757-.311A.518.518 0 0 1 12 4.5c0-.276.383-1.5.5-1.5.117 0 .5 1.224.5 1.5Z"/></g></svg>
